X:1
T: Bucks of Cranmore
P:Kerrs 4th Page 8
R:Reel
Q: 232
K:D
M:4/4
L:1/8
|:A3/2D1/2 ((3FED) AD BD|A3/2D1/2 ((3FED) BE E2|A3/2D1/2 ((3FED) A2 ((3Bcd) |ef ge fd dB|
A3/2D1/2 ((3FED) AD BD|A3/2D1/2 ((3FED) BE E2|A3/2D1/2 ((3FED) A2 ((3Bcd) |ef ge fd dB|
Ad fd ed fd|Ad fd ed Bd|Ad fd ed ef|ab ag fd dB|
Ad fd ed fd|Ad fd ed Bd|((3ABc) de fe fg|((3aba) ((3gag) fd d2:|
